modules/feathericon/icons/git.svg

<?xml version="1.0" encoding="UTF-8"?>
<svg width="14px" height="14px" viewBox="0 0 14 14" version="1.1" xmlns="http://www.w3.org/2000/svg" xmlns:xlink="http://www.w3.org/1999/xlink">
    <!-- Generator: sketchtool 48.1 (47250) - http://www.bohemiancoding.com/sketch -->
    <title>git</title>
    <desc>Created with sketchtool.</desc>
    <defs></defs>
    <g id="brand" stroke="none" stroke-width="1" fill="none" fill-rule="evenodd">
        <g id="git" fill="#000000">
            <path d="M13.7358102,6.37639639 L7.62333698,0.264075483 C7.27138869,-0.0880251609 6.70050115,-0.0880251609 6.34824815,0.264075483 L5.0791013,1.53352705 L6.68907426,3.14365236 C7.06326689,3.01719475 7.49230861,3.10205847 7.79062668,3.40022418 C8.09046834,3.70037056 8.17457027,4.13306888 8.04491313,4.50863275 L9.59683747,6.06040473 C9.97240133,5.93089995 10.4054044,6.0145448 10.705246,6.31499589 C11.1242321,6.73382959 11.1242321,7.41289171 10.705246,7.83203012 C10.2859553,8.25132089 9.6070455,8.25132089 9.18760237,7.83203012 C8.87252485,7.51664789 8.79451727,7.05347786 8.9543414,6.66526823 L7.50693504,5.21801422 L7.50693504,9.02652127 C7.60901527,9.07710432 7.70545825,9.1444468 7.79062668,9.22931052 C8.20961274,9.64829658 8.20961274,10.3272063 7.79062668,10.7468018 C7.37164063,11.1656355 6.69227379,11.1656355 6.27344009,10.7468018 C5.85445404,10.3272063 5.85445404,9.64829658 6.27344009,9.22931052 C6.37704392,9.12585906 6.49695011,9.04754676 6.6249313,8.99513541 L6.6249313,5.15143353 C6.49695011,5.09917454 6.37734863,5.02147167 6.27344009,4.91741078 C5.9560772,4.60020024 5.87974556,4.13428775 6.04261687,3.74455454 L4.45534534,2.15713065 L0.263961214,6.3480577 C-0.0879870713,6.70046306 -0.0879870713,7.2713506 0.263961214,7.62345125 L6.3767392,13.7357722 C6.72868749,14.0877204 7.29942267,14.0877204 7.65182803,13.7357722 L13.7358102,7.65178994 C14.0880633,7.2996893 14.0880633,6.72849704 13.7358102,6.37639639" id="Shape"></path>
        </g>
    </g>
</svg>

<svg width="14" height="14" xmlns="http://www.w3.org/2000/svg"><path d="M13.736 6.376L7.623.264a.902.902 0 0 0-1.275 0L5.08 1.534l1.61 1.61a1.07 1.07 0 0 1 1.356 1.365L9.597 6.06a1.073 1.073 0 1 1-.642.605L7.506 5.218v3.809a1.073 1.073 0 1 1-.882-.031V5.15a1.072 1.072 0 0 1-.582-1.407L4.455 2.158.264 6.348a.902.902 0 0 0 0 1.275l6.113 6.113a.902.902 0 0 0 1.275 0l6.084-6.084a.902.902 0 0 0 0-1.276" fill="#000" fill-rule="evenodd"/></svg>
